Newaita-dark/apps/scalable/yast-sound.svg

<?xml version="1.0" encoding="UTF-8"?>
<svg xmlns="http://www.w3.org/2000/svg" xmlns:xlink="http://www.w3.org/1999/xlink" width="512pt" height="512pt" viewBox="0 0 512 512" version="1.1">
<defs>
<linearGradient id="linear0" gradientUnits="userSpaceOnUse" x1="254.000031" y1="222.916656" x2="254.000046" y2="249.374985" gradientTransform="matrix(1.000095,0,0,1.000095,-0.000061041,241.481432)">
<stop offset="0" style="stop-color:rgb(0%,0%,0%);stop-opacity:0.27451;"/>
<stop offset="1" style="stop-color:rgb(0%,0%,0%);stop-opacity:0;"/>
</linearGradient>
<radialGradient id="radial0" gradientUnits="userSpaceOnUse" cx="450.908936" cy="189.579361" fx="450.908936" fy="189.579361" r="21.166656" gradientTransform="matrix(0.00000278673,-1.250119,-2.250215,-0.00000162462,802.337339,1038.69406)">
<stop offset="0" style="stop-color:rgb(0%,0%,0%);stop-opacity:0.313725;"/>
<stop offset="0.222222" style="stop-color:rgb(0%,0%,0%);stop-opacity:0.27451;"/>
<stop offset="1" style="stop-color:rgb(0%,0%,0%);stop-opacity:0;"/>
</radialGradient>
<radialGradient id="radial1" gradientUnits="userSpaceOnUse" cx="450.908936" cy="189.579361" fx="450.908936" fy="189.579361" r="21.166656" gradientTransform="matrix(-0.00000278673,1.250119,2.250215,0.00000162462,-294.288782,-99.270946)">
<stop offset="0" style="stop-color:rgb(0%,0%,0%);stop-opacity:0.313725;"/>
<stop offset="0.222222" style="stop-color:rgb(0%,0%,0%);stop-opacity:0.27451;"/>
<stop offset="1" style="stop-color:rgb(0%,0%,0%);stop-opacity:0;"/>
</radialGradient>
<radialGradient id="radial2" gradientUnits="userSpaceOnUse" cx="450.908936" cy="189.579361" fx="450.908936" fy="189.579361" r="21.166656" gradientTransform="matrix(-0.00000278673,-1.250119,2.250215,-0.00000162462,-294.288782,1038.69406)">
<stop offset="0" style="stop-color:rgb(0%,0%,0%);stop-opacity:0.313725;"/>
<stop offset="0.222222" style="stop-color:rgb(0%,0%,0%);stop-opacity:0.27451;"/>
<stop offset="1" style="stop-color:rgb(0%,0%,0%);stop-opacity:0;"/>
</radialGradient>
<radialGradient id="radial3" gradientUnits="userSpaceOnUse" cx="450.908936" cy="189.579361" fx="450.908936" fy="189.579361" r="21.166656" gradientTransform="matrix(0.00000278673,1.250119,-2.250215,0.00000162462,802.337324,-99.270954)">
<stop offset="0" style="stop-color:rgb(0%,0%,0%);stop-opacity:0.313725;"/>
<stop offset="0.222222" style="stop-color:rgb(0%,0%,0%);stop-opacity:0.27451;"/>
<stop offset="1" style="stop-color:rgb(0%,0%,0%);stop-opacity:0;"/>
</radialGradient>
<linearGradient id="linear1" gradientUnits="userSpaceOnUse" x1="254" y1="254.666672" x2="254" y2="32.416664" >
<stop offset="0" style="stop-color:rgb(38.039216%,38.039216%,38.039216%);stop-opacity:1;"/>
<stop offset="1" style="stop-color:rgb(25.882353%,25.882353%,25.882353%);stop-opacity:1;"/>
</linearGradient>
<linearGradient id="linear2" gradientUnits="userSpaceOnUse" x1="960" y1="1695.118164" x2="960" y2="175.118134" >
<stop offset="0" style="stop-color:rgb(56.470588%,64.313725%,68.235294%);stop-opacity:1;"/>
<stop offset="1" style="stop-color:rgb(81.176471%,84.705882%,86.27451%);stop-opacity:1;"/>
</linearGradient>
<linearGradient id="linear3" gradientUnits="userSpaceOnUse" x1="254" y1="-142.208328" x2="254" y2="207.041672" >
<stop offset="0" style="stop-color:rgb(38.039216%,38.039216%,38.039216%);stop-opacity:1;"/>
<stop offset="1" style="stop-color:rgb(25.882353%,25.882353%,25.882353%);stop-opacity:1;"/>
</linearGradient>
<linearGradient id="linear4" gradientUnits="userSpaceOnUse" x1="243.416672" y1="-126.333344" x2="243.416672" y2="191.166672" >
<stop offset="0" style="stop-color:rgb(62.352941%,65.882353%,85.490196%);stop-opacity:1;"/>
<stop offset="1" style="stop-color:rgb(77.254902%,79.215686%,91.372549%);stop-opacity:1;"/>
</linearGradient>
<linearGradient id="linear5" gradientUnits="userSpaceOnUse" x1="254" y1="-20.5" x2="254" y2="85.333336" >
<stop offset="0" style="stop-color:rgb(38.039216%,38.039216%,38.039216%);stop-opacity:1;"/>
<stop offset="1" style="stop-color:rgb(25.882353%,25.882353%,25.882353%);stop-opacity:1;"/>
</linearGradient>
</defs>
<g id="surface1">
<path style=" stroke:none;fill-rule:nonzero;fill:url(#linear0);" d="M 127.011719 469.710938 L 381.035156 469.710938 L 381.035156 490.878906 L 127.011719 490.878906 Z M 127.011719 469.710938 "/>
<path style=" stroke:none;fill-rule:nonzero;fill:url(#radial0);" d="M 381.035156 469.710938 L 423.375 469.710938 L 423.375 448.542969 L 381.035156 448.542969 Z M 381.035156 469.710938 "/>
<path style=" stroke:none;fill-rule:nonzero;fill:url(#radial1);" d="M 127.011719 469.710938 L 84.675781 469.710938 L 84.675781 490.878906 L 127.011719 490.878906 Z M 127.011719 469.710938 "/>
<path style=" stroke:none;fill-rule:nonzero;fill:url(#radial2);" d="M 127.011719 469.710938 L 84.675781 469.710938 L 84.675781 448.542969 L 127.011719 448.542969 Z M 127.011719 469.710938 "/>
<path style=" stroke:none;fill-rule:nonzero;fill:url(#radial3);" d="M 381.035156 469.710938 L 423.375 469.710938 L 423.375 490.878906 L 381.035156 490.878906 Z M 381.035156 469.710938 "/>
<path style="fill-rule:nonzero;fill:url(#linear1);stroke-width:3;stroke-linecap:round;stroke-linejoin:miter;stroke:rgb(12.941177%,12.941177%,12.941177%);stroke-opacity:1;stroke-miterlimit:4;" d="M 105.833643 32.417779 L 402.168626 32.417779 C 413.85501 32.417779 423.334574 41.893437 423.334574 53.583727 L 423.334574 233.500139 C 423.334574 245.190429 413.85501 254.666087 402.168626 254.666087 L 105.833643 254.666087 C 94.143354 254.666087 84.667696 245.190429 84.667696 233.500139 L 84.667696 53.583727 C 84.667696 41.893437 94.143354 32.417779 105.833643 32.417779 Z M 105.833643 32.417779 " transform="matrix(1.000095,0,0,1.000095,0,215.020531)"/>
<path style="fill-rule:nonzero;fill:url(#linear2);stroke-width:11.338583;stroke-linecap:round;stroke-linejoin:miter;stroke:rgb(12.941177%,12.941177%,12.941177%);stroke-opacity:1;stroke-miterlimit:4;" d="M 959.996891 175.111189 C 778.419741 175.111189 612.106883 238.161271 481.666583 343.653166 L 450.887041 312.858862 C 419.54653 281.518351 369.08875 281.518351 337.748239 312.858862 C 306.407728 344.199374 306.407728 394.657154 337.748239 425.997665 L 368.52778 456.791969 C 263.050647 587.232269 200.000566 753.530365 200.000566 935.122277 C 200.000566 1116.699426 263.050647 1283.012285 368.52778 1413.452585 L 337.748239 1444.232126 C 306.407728 1475.572637 306.407728 1526.030417 337.748239 1557.370929 C 369.08875 1588.71144 419.54653 1588.71144 450.887041 1557.370929 L 481.666583 1526.591387 C 612.106883 1632.06852 778.419741 1695.118602 959.996891 1695.118602 C 1141.57404 1695.118602 1307.886899 1632.06852 1438.327199 1526.591387 L 1469.121502 1557.370929 C 1500.462014 1588.71144 1550.919794 1588.71144 1582.260305 1557.370929 C 1613.586054 1526.030417 1613.586054 1475.572637 1582.260305 1444.232126 L 1551.466001 1413.452585 C 1656.943134 1283.012285 1719.993216 1116.699426 1719.993216 935.122277 C 1719.993216 753.530365 1656.943134 587.232269 1551.466001 456.791969 L 1582.260305 425.997665 C 1613.586054 394.657154 1613.586054 344.199374 1582.260305 312.858862 C 1550.919794 281.518351 1500.462014 281.518351 1469.121502 312.858862 L 1438.327199 343.653166 C 1307.886899 238.161271 1141.57404 175.111189 959.996891 175.111189 Z M 959.996891 175.111189 " transform="matrix(0.264609,0,0,0.264609,0.0000056136,0.0000110981)"/>
<path style="fill-rule:nonzero;fill:url(#linear3);stroke-width:3;stroke-linecap:round;stroke-linejoin:miter;stroke:rgb(12.941177%,12.941177%,12.941177%);stroke-opacity:1;stroke-miterlimit:4;" d="M 253.999182 -142.210076 C 350.443097 -142.210076 428.623131 -66.397003 428.623131 27.125316 L 428.623131 37.710242 C 428.623131 131.228656 350.443097 207.041728 253.999182 207.041728 C 157.559173 207.041728 79.375233 131.228656 79.375233 37.710242 L 79.375233 27.125316 C 79.375233 -66.397003 157.559173 -142.210076 253.999182 -142.210076 Z M 253.999182 -142.210076 " transform="matrix(1.000095,0,0,1.000095,0,215.020531)"/>
<path style="fill-rule:nonzero;fill:url(#linear4);stroke-width:3;stroke-linecap:round;stroke-linejoin:miter;stroke:rgb(12.941177%,12.941177%,12.941177%);stroke-opacity:1;stroke-miterlimit:4;" d="M 253.999182 -126.332686 C 341.674403 -126.332686 412.749647 -55.257442 412.749647 32.417779 C 412.749647 120.093 341.674403 191.168244 253.999182 191.168244 C 166.323961 191.168244 95.248717 120.093 95.248717 32.417779 C 95.248717 -55.257442 166.323961 -126.332686 253.999182 -126.332686 Z M 253.999182 -126.332686 " transform="matrix(1.000095,0,0,1.000095,0,215.020531)"/>
<path style="fill-rule:nonzero;fill:url(#linear5);stroke-width:3;stroke-linecap:round;stroke-linejoin:miter;stroke:rgb(12.941177%,12.941177%,12.941177%);stroke-opacity:1;stroke-miterlimit:4;" d="M 253.999182 -20.499043 C 283.226859 -20.499043 306.916003 3.190101 306.916003 32.417779 C 306.916003 61.641551 283.226859 85.334601 253.999182 85.334601 C 224.77541 85.334601 201.08236 61.641551 201.08236 32.417779 C 201.08236 3.190101 224.77541 -20.499043 253.999182 -20.499043 Z M 253.999182 -20.499043 " transform="matrix(1.000095,0,0,1.000095,0,215.020531)"/>
</g>
</svg>

<svg xmlns="http://www.w3.org/2000/svg" width="512pt" height="512pt" viewBox="0 0 512 512"><defs><linearGradient id="a" gradientUnits="userSpaceOnUse" x1="254" y1="222.917" x2="254" y2="249.375" gradientTransform="matrix(1.0001 0 0 1.0001 0 241.481)"><stop offset="0" stop-opacity=".275"/><stop offset="1" stop-opacity="0"/></linearGradient><radialGradient id="b" gradientUnits="userSpaceOnUse" cx="450.909" cy="189.579" fx="450.909" fy="189.579" r="21.167" gradientTransform="matrix(0 -1.25012 -2.25021 0 802.337 1038.694)"><stop offset="0" stop-opacity=".314"/><stop offset=".222" stop-opacity=".275"/><stop offset="1" stop-opacity="0"/></radialGradient><radialGradient id="c" gradientUnits="userSpaceOnUse" cx="450.909" cy="189.579" fx="450.909" fy="189.579" r="21.167" gradientTransform="matrix(0 1.25012 2.25021 0 -294.289 -99.27)"><stop offset="0" stop-opacity=".314"/><stop offset=".222" stop-opacity=".275"/><stop offset="1" stop-opacity="0"/></radialGradient><radialGradient id="d" gradientUnits="userSpaceOnUse" cx="450.909" cy="189.579" fx="450.909" fy="189.579" r="21.167" gradientTransform="matrix(0 -1.25012 2.25021 0 -294.289 1038.694)"><stop offset="0" stop-opacity=".314"/><stop offset=".222" stop-opacity=".275"/><stop offset="1" stop-opacity="0"/></radialGradient><radialGradient id="e" gradientUnits="userSpaceOnUse" cx="450.909" cy="189.579" fx="450.909" fy="189.579" r="21.167" gradientTransform="matrix(0 1.25012 -2.25021 0 802.337 -99.271)"><stop offset="0" stop-opacity=".314"/><stop offset=".222" stop-opacity=".275"/><stop offset="1" stop-opacity="0"/></radialGradient><linearGradient id="f" gradientUnits="userSpaceOnUse" x1="254" y1="254.667" x2="254" y2="32.417"><stop offset="0" stop-color="#616161"/><stop offset="1" stop-color="#424242"/></linearGradient><linearGradient id="g" gradientUnits="userSpaceOnUse" x1="960" y1="1695.118" x2="960" y2="175.118"><stop offset="0" stop-color="#90a4ae"/><stop offset="1" stop-color="#cfd8dc"/></linearGradient><linearGradient id="h" gradientUnits="userSpaceOnUse" x1="254" y1="-142.208" x2="254" y2="207.042"><stop offset="0" stop-color="#616161"/><stop offset="1" stop-color="#424242"/></linearGradient><linearGradient id="i" gradientUnits="userSpaceOnUse" x1="243.417" y1="-126.333" x2="243.417" y2="191.167"><stop offset="0" stop-color="#9fa8da"/><stop offset="1" stop-color="#c5cae9"/></linearGradient><linearGradient id="j" gradientUnits="userSpaceOnUse" x1="254" y1="-20.5" x2="254" y2="85.333"><stop offset="0" stop-color="#616161"/><stop offset="1" stop-color="#424242"/></linearGradient></defs><path d="M127.012 469.71h254.023v21.169H127.012zm0 0" fill="url(#a)"/><path d="M381.035 469.71h42.34v-21.167h-42.34zm0 0" fill="url(#b)"/><path d="M127.012 469.71H84.676v21.169h42.336zm0 0" fill="url(#c)"/><path d="M127.012 469.71H84.676v-21.167h42.336zm0 0" fill="url(#d)"/><path d="M381.035 469.71h42.34v21.169h-42.34zm0 0" fill="url(#e)"/><path d="M105.834 32.418h296.335c11.686 0 21.166 9.475 21.166 21.166V233.5c0 11.69-9.48 21.166-21.166 21.166H105.834c-11.69 0-21.166-9.476-21.166-21.166V53.584c0-11.69 9.475-21.166 21.166-21.166zm0 0" transform="matrix(1.0001 0 0 1.0001 0 215.02)" fill="url(#f)" stroke-width="3" stroke-linecap="round" stroke="#212121"/><path d="M959.997 175.111c-181.577 0-347.89 63.05-478.33 168.542l-30.78-30.794c-31.34-31.34-81.798-31.34-113.139 0-31.34 31.34-31.34 81.798 0 113.139l30.78 30.794C263.05 587.232 200 753.53 200 935.122c0 181.577 63.05 347.89 168.527 478.33l-30.78 30.78c-31.34 31.34-31.34 81.798 0 113.139 31.34 31.34 81.799 31.34 113.139 0l30.78-30.78c130.44 105.478 296.753 168.528 478.33 168.528s347.89-63.05 478.33-168.528l30.795 30.78c31.34 31.34 81.798 31.34 113.138 0 31.326-31.34 31.326-81.798 0-113.139l-30.794-30.78c105.477-130.44 168.527-296.753 168.527-478.33 0-181.592-63.05-347.89-168.527-478.33l30.794-30.794c31.326-31.34 31.326-81.799 0-113.14-31.34-31.34-81.798-31.34-113.138 0l-30.795 30.795c-130.44-105.492-296.753-168.542-478.33-168.542zm0 0" transform="matrix(.2646 0 0 .2646 0 0)" fill="url(#g)" stroke-width="11.339" stroke-linecap="round" stroke="#212121"/><path d="M254-142.21c96.443 0 174.623 75.813 174.623 169.335V37.71c0 93.519-78.18 169.332-174.624 169.332-96.44 0-174.624-75.813-174.624-169.332V27.125C79.375-66.397 157.56-142.21 254-142.21zm0 0" transform="matrix(1.0001 0 0 1.0001 0 215.02)" fill="url(#h)" stroke-width="3" stroke-linecap="round" stroke="#212121"/><path d="M254-126.333c87.674 0 158.75 71.076 158.75 158.75 0 87.676-71.076 158.751-158.75 158.751-87.676 0-158.751-71.075-158.751-158.75s71.075-158.75 158.75-158.75zm0 0" transform="matrix(1.0001 0 0 1.0001 0 215.02)" fill="url(#i)" stroke-width="3" stroke-linecap="round" stroke="#212121"/><path d="M254-20.499c29.227 0 52.916 23.69 52.916 52.917 0 29.224-23.69 52.917-52.917 52.917-29.224 0-52.917-23.693-52.917-52.917C201.082 3.19 224.775-20.5 254-20.5zm0 0" transform="matrix(1.0001 0 0 1.0001 0 215.02)" fill="url(#j)" stroke-width="3" stroke-linecap="round" stroke="#212121"/></svg>
